app/images/icon/social-tg.svg

<svg width="30" height="30" viewBox="0 0 30 30" fill="none" xmlns="http://www.w3.org/2000/svg">
<rect width="30" height="30" rx="2" fill="#419FD9"/>
<path fill-rule="evenodd" clip-rule="evenodd" d="M17.6751 20.9097C18.4387 21.2437 18.7251 20.5438 18.7251 20.5438L20.7454 10.3944C20.7295 9.71031 19.8068 10.1239 19.8068 10.1239L8.49614 14.5623C8.49614 14.5623 7.95526 14.7532 8.00298 15.0873C8.05071 15.4213 8.48023 15.5804 8.48023 15.5804L11.3278 16.5349C11.3278 16.5349 12.1868 19.3507 12.3618 19.8915C12.5209 20.4165 12.6641 20.4324 12.6641 20.4324C12.8232 20.496 12.9663 20.3847 12.9663 20.3847L14.8117 18.7143L17.6751 20.9097ZM18.1683 12.1918C18.1683 12.1918 18.566 11.9532 18.5501 12.1918C18.5501 12.1918 18.6137 12.2236 18.4069 12.4464C18.216 12.6373 13.714 16.6779 13.1095 17.2188C13.0618 17.2506 13.03 17.2983 13.03 17.362L12.855 18.8573C12.8231 19.0164 12.6163 19.0323 12.5686 18.8892L11.8209 16.4393C11.7891 16.3439 11.8209 16.2325 11.9164 16.1689L18.1683 12.1918Z" fill="white"/>
</svg>

<svg width="30" height="30" fill="none" xmlns="http://www.w3.org/2000/svg">
    <rect width="30" height="30" rx="2" fill="#419FD9"/>
    <path fill-rule="evenodd" clip-rule="evenodd" d="M17.675 20.91c.764.334 1.05-.366 1.05-.366l2.02-10.15c-.015-.684-.938-.27-.938-.27l-11.31 4.438s-.542.191-.494.525c.048.334.477.493.477.493l2.848.955s.859 2.816 1.034 3.357c.159.524.302.54.302.54.16.064.302-.047.302-.047l1.846-1.67 2.863 2.195Zm.493-8.718s.398-.239.382 0c0 0 .064.032-.143.254-.191.191-4.693 4.232-5.297 4.773a.167.167 0 0 0-.08.143l-.175 1.495c-.032.16-.239.175-.286.032l-.748-2.45a.234.234 0 0 1 .095-.27l6.252-3.977Z" fill="#fff"/>
</svg>
